assets/icons/24px/stroke/games-24px.svg

<svg width="24" height="24" viewBox="0 0 24 24" fill="none" xmlns="http://www.w3.org/2000/svg">
<path d="M7.33333 13.1667C7.33333 13.0117 7.33333 12.9342 7.35037 12.8706C7.39661 12.6981 7.53139 12.5633 7.70394 12.5171C7.76752 12.5 7.84502 12.5 8.00002 12.5Lnan nanLnan nanL8.00002 12.5C8.15501 12.5 8.23251 12.5 8.29609 12.5171C8.46863 12.5633 8.6034 12.6981 8.64963 12.8706C8.66667 12.9342 8.66667 13.0117 8.66667 13.1667V13.6333C8.66667 13.7276 8.66667 13.7748 8.69596 13.804C8.72525 13.8333 8.77239 13.8333 8.86667 13.8333H9.33332C9.48833 13.8333 9.56583 13.8333 9.62942 13.8504C9.80196 13.8966 9.93672 14.0314 9.98296 14.2039C10 14.2675 10 14.345 10 14.5Lnan nanLnan nanL10 14.5C10 14.655 10 14.7325 9.98296 14.7961C9.93672 14.9686 9.80196 15.1034 9.62942 15.1497C9.56583 15.1667 9.48833 15.1667 9.33332 15.1667H8.86667C8.77239 15.1667 8.72525 15.1667 8.69596 15.196C8.66667 15.2253 8.66667 15.2724 8.66667 15.3667V15.8333C8.66667 15.9883 8.66667 16.0658 8.64963 16.1294C8.60339 16.302 8.46861 16.4367 8.29606 16.483C8.23248 16.5 8.15498 16.5 7.99998 16.5Lnan nanLnan nanL7.99998 16.5C7.84499 16.5 7.76749 16.5 7.70391 16.4829C7.53137 16.4367 7.3966 16.3019 7.35037 16.1294C7.33333 16.0658 7.33333 15.9883 7.33333 15.8333V15.3667C7.33333 15.2724 7.33333 15.2252 7.30404 15.1959C7.27475 15.1666 7.22761 15.1667 7.13333 15.1667L6.66668 15.1667C6.51167 15.1667 6.43417 15.1667 6.37058 15.1496C6.19804 15.1034 6.06328 14.9686 6.01704 14.7961C6 14.7325 6 14.655 6 14.5Lnan nanLnan nanL6 14.5C6 14.345 6 14.2675 6.01704 14.2039C6.06327 14.0313 6.19804 13.8966 6.37058 13.8503C6.43417 13.8333 6.51167 13.8333 6.66668 13.8333L7.13333 13.8333C7.22761 13.8333 7.27476 13.8333 7.30404 13.804C7.33333 13.7747 7.33333 13.7276 7.33333 13.6333V13.1667Z" fill="white"/>
<path d="M17.1667 12.75C17.1667 13.1642 16.8309 13.5 16.4167 13.5C16.0025 13.5 15.6667 13.1642 15.6667 12.75C15.6667 12.3358 16.0025 12 16.4167 12C16.8309 12 17.1667 12.3358 17.1667 12.75Z" fill="white"/>
<path d="M17.1667 16.0833C17.1667 16.4976 16.8309 16.8333 16.4167 16.8333C16.0025 16.8333 15.6667 16.4976 15.6667 16.0833C15.6667 15.6691 16.0025 15.3333 16.4167 15.3333C16.8309 15.3333 17.1667 15.6691 17.1667 16.0833Z" fill="white"/>
<path d="M15.5 14.4167C15.5 14.8309 15.1642 15.1667 14.75 15.1667C14.3358 15.1667 14 14.8309 14 14.4167C14 14.0024 14.3358 13.6667 14.75 13.6667C15.1642 13.6667 15.5 14.0024 15.5 14.4167Z" fill="white"/>
<path d="M18.8333 14.4167C18.8333 14.8309 18.4975 15.1667 18.0833 15.1667C17.6691 15.1667 17.3333 14.8309 17.3333 14.4167C17.3333 14.0024 17.6691 13.6667 18.0833 13.6667C18.4975 13.6667 18.8333 14.0024 18.8333 14.4167Z" fill="white"/>
<path fill-rule="evenodd" clip-rule="evenodd" d="M18 2C18.5523 2 19 2.44772 19 3V3.93845C19 3.9596 19 3.98071 19 4.00177C19.0001 4.5364 19.0002 5.04088 18.9416 5.44568C18.877 5.89238 18.7161 6.41673 18.2308 6.79563C17.7455 7.17454 17.1978 7.20345 16.7488 7.1578C16.3419 7.11643 15.8525 6.99399 15.3338 6.86424C15.3134 6.85913 15.2929 6.854 15.2724 6.84888L14.2425 6.59141C13.64 6.44077 13.2941 6.35687 13.0489 6.33194C13.0456 6.33161 13.0424 6.33129 13.0392 6.33098C13.0387 6.33414 13.0383 6.33737 13.0378 6.34066C13.0025 6.58455 13 6.94047 13 7.56155V10C13 10.5523 12.5523 11 12 11C11.4477 11 11 10.5523 11 10V7.56155C11 7.5404 11 7.5193 11 7.49824C10.9999 6.9636 10.9998 6.45912 11.0584 6.05432C11.123 5.60762 11.2839 5.08327 11.7692 4.70437C12.2545 4.32546 12.8022 4.29655 13.2512 4.3422C13.6581 4.38357 14.1475 4.50601 14.6662 4.63576C14.6866 4.64087 14.7071 4.646 14.7276 4.65113L15.7575 4.90859C16.36 5.05923 16.7059 5.14313 16.9511 5.16806C16.9544 5.16839 16.9576 5.16871 16.9608 5.16902C16.9613 5.16586 16.9618 5.16263 16.9622 5.15934C16.9975 4.91545 17 4.55953 17 3.93845V3C17 2.44772 17.4477 2 18 2ZM16.9315 5.30061C16.9315 5.30057 16.9319 5.2996 16.9327 5.29784C16.9319 5.29978 16.9315 5.30066 16.9315 5.30061ZM17.0926 5.17297C17.0945 5.1726 17.0955 5.17247 17.0956 5.17251C17.0956 5.17254 17.0947 5.17272 17.0926 5.17297ZM13.0685 6.19939C13.0685 6.19943 13.0682 6.2004 13.0674 6.20216C13.0681 6.20022 13.0685 6.19934 13.0685 6.19939ZM12.9074 6.32703C12.9055 6.3274 12.9045 6.32753 12.9044 6.32749C12.9044 6.32746 12.9053 6.32728 12.9074 6.32703Z" fill="white"/>
<path fill-rule="evenodd" clip-rule="evenodd" d="M7.5 11C5.6635 11 4 12.6891 4 15C4 16.9497 5.20322 18.4838 6.68118 18.8898C6.70882 18.8974 6.74572 18.9006 6.81131 18.8616C6.88713 18.8166 6.97754 18.7242 7.03808 18.5896C7.47343 17.6222 8.4357 17 9.49659 17H14.5034C15.5643 17 16.5266 17.6222 16.9619 18.5896C17.0225 18.7242 17.1129 18.8166 17.1887 18.8616C17.2543 18.9006 17.2912 18.8974 17.3188 18.8898C18.7968 18.4838 20 16.9497 20 15C20 12.6891 18.3365 11 16.5 11H7.5ZM2 15C2 11.788 4.36593 9 7.5 9H16.5C19.6341 9 22 11.788 22 15C22 17.7429 20.2942 20.1465 17.8486 20.8183C16.5771 21.1676 15.5414 20.3067 15.1381 19.4104C15.0257 19.1606 14.7773 19 14.5034 19H9.49659C9.22272 19 8.97431 19.1606 8.86192 19.4104C8.45858 20.3067 7.42289 21.1676 6.15137 20.8183C3.70575 20.1465 2 17.7429 2 15Z" fill="white"/>
</svg>

<svg width="24" height="24" fill="none" xmlns="http://www.w3.org/2000/svg"><path d="M7.333 13.167c0-.155 0-.233.017-.296a.5.5 0 0 1 .354-.354c.064-.017.141-.017.296-.017s.233 0 .296.017a.5.5 0 0 1 .354.354c.017.063.017.14.017.296v.466c0 .095 0 .142.029.171.03.03.076.03.17.03h.467c.155 0 .233 0 .296.016a.5.5 0 0 1 .354.354c.017.063.017.141.017.296s0 .232-.017.296a.5.5 0 0 1-.354.354c-.063.017-.14.017-.296.017h-.466c-.095 0-.142 0-.171.029-.03.03-.03.076-.03.17v.467c0 .155 0 .233-.016.296a.5.5 0 0 1-.354.354c-.064.017-.141.017-.296.017s-.233 0-.296-.017a.5.5 0 0 1-.354-.354c-.017-.063-.017-.14-.017-.296v-.466c0-.095 0-.142-.029-.171-.03-.03-.076-.03-.17-.03h-.467c-.155 0-.233 0-.296-.016a.5.5 0 0 1-.354-.354C6 14.733 6 14.655 6 14.5s0-.232.017-.296a.5.5 0 0 1 .354-.354c.063-.017.14-.017.296-.017h.466c.095 0 .142 0 .171-.029.03-.03.03-.076.03-.17v-.467zm9.834-.417a.75.75 0 1 1-1.5 0 .75.75 0 0 1 1.5 0zm0 3.333a.75.75 0 1 1-1.5 0 .75.75 0 0 1 1.5 0zM15.5 14.417a.75.75 0 1 1-1.5 0 .75.75 0 0 1 1.5 0zm3.333 0a.75.75 0 1 1-1.5 0 .75.75 0 0 1 1.5 0z" fill="#fff"/><path fill-rule="evenodd" clip-rule="evenodd" d="M18 2a1 1 0 0 1 1 1v1.002c0 .534 0 1.039-.058 1.444-.065.446-.226.97-.711 1.35-.486.379-1.033.407-1.482.362-.407-.042-.896-.164-1.415-.294l-.062-.015-1.03-.258c-.602-.15-.948-.234-1.193-.26h-.01l-.001.01c-.036.244-.038.6-.038 1.22V10a1 1 0 1 1-2 0V7.562v-.064c0-.534 0-1.039.058-1.444.065-.446.226-.97.711-1.35.486-.379 1.033-.407 1.482-.362.407.042.897.164 1.415.294l.062.015 1.03.258c.602.15.948.234 1.193.26h.01l.001-.01c.035-.244.038-.6.038-1.22V3a1 1 0 0 1 1-1zm-1.069 3.3zm.162-.127h0zm-4.024 1.026zm-.162.128h-.003.003z" fill="#fff"/><path fill-rule="evenodd" clip-rule="evenodd" d="M7.5 11C5.663 11 4 12.69 4 15c0 1.95 1.203 3.484 2.681 3.89.028.007.065.01.13-.028a.609.609 0 0 0 .227-.272A2.696 2.696 0 0 1 9.497 17h5.006c1.061 0 2.024.622 2.459 1.59a.61.61 0 0 0 .227.272c.065.039.102.035.13.028C18.797 18.484 20 16.95 20 15c0-2.31-1.663-4-3.5-4h-9zM2 15c0-3.212 2.366-6 5.5-6h9c3.134 0 5.5 2.788 5.5 6 0 2.743-1.706 5.146-4.151 5.818-1.272.35-2.308-.511-2.71-1.408a.696.696 0 0 0-.636-.41H9.497a.696.696 0 0 0-.635.41c-.403.897-1.44 1.758-2.71 1.408C3.705 20.146 2 17.743 2 15z" fill="#fff"/></svg>
